X: 18952
T: Iníon Ní Scannláin
R: waltz
M: 3/4
K: Gmajor
|:"G"G3 AAG|"Am"BG E2 EF|"G"G2 GA AG|"G/B"Bd dG Bd|
"C"e3 gfd|"G"e3d B/A/G|"Am"A2 AG AB|1 "D"Bd de BA:|2 "G"Bd dG "G/Bb"B/c/d ]|
"Em7"e3 aab|"Am7"g3 fge|"D"d3 efg|"G"BA G2 "G/B"B/c/d|
"C"e3 aab|"G/B"g3 d f/g/a|"Em"b6-|"D"bd ad gd|
"C"e3 g f/e/d|"G/B"e2 ed B/A/G|"Am"A3 GAB|"D"Bd de B/A/G|
"Am"A2 AB AG|"C"E3 D E/F/G|"Am"A3 GAB|"D"Bd de BA S|"^last time""G"G6||
|:"Em"B6|"Bm"d6|"C"B6|"G"d6|"Am"G4-GB|"G/B"G4-GB|"C"A3GAB|"D"d6|
"Em"B6|"Bm"d6|"Am7"B6|"G"d4-de|"C"G4-GF|"G"G4-GB|"Am"A3GAB|"D"Bd de BA "^D.C. al segno":|

